style-guide/assets/wds-icons-reply-small.svg

<svg xmlns="http://www.w3.org/2000/svg" xmlns:xlink="http://www.w3.org/1999/xlink" width="18" height="18" viewBox="0 0 18 18">
  <defs>
    <path id="reply-a" d="M17,18.00025 C16.447,18.00025 16,17.55325 16,17.00025 C16,12.03725 11.963,8.00025 7,8.00025 L3.414,8.00025 L7.707,12.29325 C8.098,12.68425 8.098,13.31625 7.707,13.70725 C7.316,14.09825 6.684,14.09825 6.293,13.70725 L0.293,7.70725 C0.196,7.61025 0.124,7.50025 0.075,7.38125 C0.027,7.26525 0,7.13725 0,7.00325 L0,6.99725 C0,6.86325 0.027,6.73525 0.075,6.61925 C0.124,6.50025 0.196,6.39025 0.293,6.29325 L6.293,0.29325 C6.684,-0.09775 7.316,-0.09775 7.707,0.29325 C8.098,0.68425 8.098,1.31625 7.707,1.70725 L3.414,6.00025 L7,6.00025 C13.065,6.00025 18,10.93525 18,17.00025 C18,17.55325 17.553,18.00025 17,18.00025"/>
  </defs>
  <use fill-rule="evenodd" xlink:href="#reply-a"/>
</svg>

<svg viewBox="0 0 18 18" xmlns="http://www.w3.org/2000/svg">
  <path d="M17 18a1 1 0 0 1-1-1c0-4.963-4.037-9-9-9H3.414l4.293 4.293a.999.999 0 1 1-1.414 1.414l-6-6A.993.993 0 0 1 0 7.003v-.006a.988.988 0 0 1 .293-.704l6-6a.999.999 0 1 1 1.414 1.414L3.414 6H7c6.065 0 11 4.935 11 11a1 1 0 0 1-1 1"/>
</svg>
